src/next/cmd/lc_sectionalignleft.svg

<svg height="24" width="24" xmlns="http://www.w3.org/2000/svg" xmlns:xlink="http://www.w3.org/1999/xlink"><linearGradient id="a"><stop offset="0" stop-color="#0968ef"/><stop offset="1" stop-color="#aecffc"/></linearGradient><linearGradient id="b" gradientTransform="matrix(-.0001223 .24932918 .24932918 .0001223 6.084681 -23.949912)" gradientUnits="userSpaceOnUse" x1="113.15723" x2="39.268185" xlink:href="#a" y1="25.786163" y2="25.786163"/><linearGradient id="c"><stop offset="0" stop-color="#fff"/><stop offset="1" stop-color="#fff" stop-opacity="0"/></linearGradient><linearGradient id="d"><stop offset="0" stop-color="#fff"/><stop offset=".42597079" stop-color="#fff"/><stop offset=".5892781" stop-color="#f1f1f1"/><stop offset=".80219781" stop-color="#eaeaea"/><stop offset="1" stop-color="#dfdfdf"/></linearGradient><linearGradient id="e"><stop offset="0" stop-color="#b4b4b6"/><stop offset=".5" stop-color="#9c9ca1"/><stop offset="1" stop-color="#cdcdd1"/></linearGradient><linearGradient id="f" gradientTransform="matrix(.9681179 0 0 .7816984 -19.744944 -94.25359)" gradientUnits="userSpaceOnUse" x1="16.263456" x2="28.913122" xlink:href="#a" y1="67.869316" y2="-12.523698"/><linearGradient id="g" gradientTransform="matrix(.07287422 0 0 .05204769 -80.729628 -32.601414)" gradientUnits="userSpaceOnUse" x1="399.77466" x2="399.77466" xlink:href="#e" y1="1164.6696" y2="549.06134"/><linearGradient id="h" gradientTransform="matrix(.6666667 0 0 .3333335 -6.666665 42.666668)" gradientUnits="userSpaceOnUse" x1="51.999996" x2="-8.000002" xlink:href="#d" y1="123.99993" y2="15.999988"/><linearGradient id="i" gradientTransform="matrix(0 .7098215 -.7098215 0 34.071428 6.851705)" gradientUnits="userSpaceOnUse" x1="79.675705" x2="108.625" xlink:href="#c" y1="11.57233" y2="32"/><linearGradient id="j" gradientTransform="matrix(-.7098215 0 0 -.7098215 87.827835 66.071428)" gradientUnits="userSpaceOnUse" x1="79.675705" x2="108.625" xlink:href="#c" y1="11.57233" y2="32"/><linearGradient id="k" gradientTransform="matrix(.4947917 0 0 .3333335 -75.916665 -45.333332)" gradientUnits="userSpaceOnUse" x1="-8.252634" x2="88.757889" xlink:href="#d" y1="111.99996" y2="4.000018"/><linearGradient id="l" gradientTransform="matrix(.05667995 0 0 .05204769 16.3214 -68.601414)" gradientUnits="userSpaceOnUse" x1="1052.9049" x2="206.04465" xlink:href="#e" y1="856.93378" y2="780.08118"/><g transform="matrix(0 1 -1 0 24 0)"><g transform="matrix(0 -.25 -.25 0 33 19)"><rect fill="url(#g)" height="32" rx="4.144231" transform="rotate(-90)" width="32" x="-80" y="-4"/><g fill-rule="evenodd"><rect fill="url(#h)" height="24" rx="1.5" ry="1.444444" width="24" y="52"/><path d="m24 64c-6.692254-7.583426-15.2164-6.89182-24-11.320452v19.320452c8.409239 1.082101 17.291584-3.34024 24 1.316406z" fill="url(#i)"/></g></g><rect fill="url(#f)" height="96" rx="3.646447" ry="4" transform="matrix(0 .25 -.25 0 1 24)" width="8.000001" x="-12" y="-92"/><g transform="matrix(-.25 0 0 .25 12.999998 1)"><rect fill="url(#l)" height="32.000008" rx="4.144231" transform="rotate(90)" width="48" x="28" y="-40"/><g fill-rule="evenodd"><rect fill="url(#k)" height="24" rx="1.5" ry="1.444444" transform="matrix(0 -1 -1 0 0 0)" width="40" x="-72" y="-36"/><path d="m23.999992 60c7.583426-6.692254 7.571368-19.2164 12-28h-19.320452c-1.082101 8.409239 2.660692 21.291584-1.995954 28z" fill="url(#j)"/></g></g><path d="m13.051222 9.97301-4.98365-5.986348.991532-.990556 2.997268 1.945924-.056372-4.94203 1.99463.000996.056372 4.942032 2.948998-1.943028 1.04074.991554-4.98952 5.981454z" fill="url(#b)" fill-rule="evenodd"/></g></svg>

<?xml version="1.0" encoding="UTF-8" standalone="no"?>
<svg
   xmlns:dc="http://purl.org/dc/elements/1.1/"
   xmlns:cc="http://creativecommons.org/ns#"
   xmlns:rdf="http://www.w3.org/1999/02/22-rdf-syntax-ns#"
   xmlns:svg="http://www.w3.org/2000/svg"
   xmlns="http://www.w3.org/2000/svg"
   xmlns:xlink="http://www.w3.org/1999/xlink"
   xmlns:sodipodi="http://sodipodi.sourceforge.net/DTD/sodipodi-0.dtd"
   xmlns:inkscape="http://www.inkscape.org/namespaces/inkscape"
   height="24"
   width="24"
   version="1.1"
   id="svg58"
   sodipodi:docname="lc_sectionalignleft.svg"
   inkscape:version="0.92.4 (unknown)"
   inkscape:export-filename="/home/rizmut/Dokumen/Rizmut/Github/libreoffice-style-karasa-jaga/build/next/cmd/lc_sectionalignleft.png"
   inkscape:export-xdpi="96"
   inkscape:export-ydpi="96">
  <metadata
     id="metadata64">
    <rdf:RDF>
      <cc:Work
         rdf:about="">
        <dc:format>image/svg+xml</dc:format>
        <dc:type
           rdf:resource="http://purl.org/dc/dcmitype/StillImage" />
        <dc:title></dc:title>
      </cc:Work>
    </rdf:RDF>
  </metadata>
  <defs
     id="defs62">
    <linearGradient
       inkscape:collect="always"
       xlink:href="#linearGradient2399-7"
       id="linearGradient3358"
       gradientUnits="userSpaceOnUse"
       gradientTransform="matrix(-1.22302e-4,0.24932918,0.24932918,1.22302e-4,6.084681,-23.949912)"
       x1="113.15723"
       y1="25.786163"
       x2="39.268185"
       y2="25.786163" />
    <linearGradient
       id="linearGradient2399-7">
      <stop
         style="stop-color:#0968ef;stop-opacity:1;"
         offset="0"
         id="stop2401-6" />
      <stop
         style="stop-color:#aecffc;stop-opacity:1;"
         offset="1"
         id="stop2403-5" />
    </linearGradient>
  </defs>
  <sodipodi:namedview
     pagecolor="#ffffff"
     bordercolor="#666666"
     borderopacity="1"
     objecttolerance="10"
     gridtolerance="10"
     guidetolerance="10"
     inkscape:pageopacity="0"
     inkscape:pageshadow="2"
     inkscape:window-width="1366"
     inkscape:window-height="714"
     id="namedview60"
     showgrid="true"
     inkscape:zoom="13.906433"
     inkscape:cx="14.938786"
     inkscape:cy="10.435513"
     inkscape:window-x="0"
     inkscape:window-y="28"
     inkscape:window-maximized="1"
     inkscape:current-layer="g124">
    <inkscape:grid
       type="xygrid"
       id="grid66" />
  </sodipodi:namedview>
  <linearGradient
     id="a">
    <stop
       offset="0"
       stop-color="#fff"
       id="stop2" />
    <stop
       offset="1"
       stop-color="#fff"
       stop-opacity="0"
       id="stop4" />
  </linearGradient>
  <linearGradient
     id="b">
    <stop
       offset="0"
       stop-color="#fff"
       id="stop7" />
    <stop
       offset=".42597079"
       stop-color="#fff"
       id="stop9" />
    <stop
       offset=".5892781"
       stop-color="#f1f1f1"
       id="stop11" />
    <stop
       offset=".80219781"
       stop-color="#eaeaea"
       id="stop13" />
    <stop
       offset="1"
       stop-color="#dfdfdf"
       id="stop15" />
  </linearGradient>
  <linearGradient
     id="c">
    <stop
       offset="0"
       stop-color="#b4b4b6"
       id="stop18" />
    <stop
       offset=".5"
       stop-color="#9c9ca1"
       id="stop20" />
    <stop
       offset="1"
       stop-color="#cdcdd1"
       id="stop22" />
  </linearGradient>
  <linearGradient
     id="d"
     gradientTransform="matrix(0.9681179,0,0,0.7816984,-19.744944,-94.25359)"
     gradientUnits="userSpaceOnUse"
     x1="16.263456"
     x2="28.913122"
     y1="67.869316"
     y2="-12.523698">
    <stop
       offset="0"
       stop-color="#0968ef"
       id="stop25" />
    <stop
       offset="1"
       stop-color="#aecffc"
       id="stop27" />
  </linearGradient>
  <linearGradient
     id="e"
     gradientTransform="matrix(0.07287422,0,0,0.05204769,-80.729628,-32.601414)"
     gradientUnits="userSpaceOnUse"
     x1="399.77466"
     x2="399.77466"
     xlink:href="#c"
     y1="1164.6696"
     y2="549.06134" />
  <linearGradient
     id="f"
     gradientTransform="matrix(0.6666667,0,0,0.3333335,-6.666665,42.666668)"
     gradientUnits="userSpaceOnUse"
     x1="51.999996"
     x2="-8.0000019"
     xlink:href="#b"
     y1="123.99993"
     y2="15.999988" />
  <linearGradient
     id="g"
     gradientTransform="matrix(0,0.7098215,-0.7098215,0,34.071428,6.851705)"
     gradientUnits="userSpaceOnUse"
     x1="79.675705"
     x2="108.625"
     xlink:href="#a"
     y1="11.57233"
     y2="32" />
  <linearGradient
     id="h"
     gradientTransform="matrix(-0.7098215,0,0,-0.7098215,87.827835,66.071428)"
     gradientUnits="userSpaceOnUse"
     x1="79.675705"
     x2="108.625"
     xlink:href="#a"
     y1="11.57233"
     y2="32" />
  <linearGradient
     id="i"
     gradientTransform="matrix(0.4947917,0,0,0.3333335,-75.916665,-45.333332)"
     gradientUnits="userSpaceOnUse"
     x1="-8.252634"
     x2="88.757889"
     xlink:href="#b"
     y1="111.99996"
     y2="4.0000181" />
  <linearGradient
     id="j"
     gradientTransform="matrix(0.05667995,0,0,0.05204769,16.3214,-68.601414)"
     gradientUnits="userSpaceOnUse"
     x1="1052.9049"
     x2="206.04465"
     xlink:href="#c"
     y1="856.93378"
     y2="780.08118" />
  <g
     id="g124"
     transform="rotate(90,12,12)">
    <g
       id="g44"
       transform="matrix(0,-0.25,-0.25,0,33,19)">
      <rect
         style="fill:url(#e)"
         id="rect36"
         y="-4"
         x="-80"
         width="32"
         rx="4.1442308"
         height="32"
         transform="rotate(-90)" />
      <g
         id="g42"
         style="fill-rule:evenodd">
        <rect
           style="fill:url(#f)"
           x="0"
           id="rect38"
           y="52"
           width="24"
           ry="1.4444439"
           rx="1.5"
           height="24" />
        <path
           sodipodi:nodetypes="ccccc"
           inkscape:connector-curvature="0"
           style="fill:url(#g)"
           id="path40"
           d="M 24,64 C 17.307746,56.416574 8.7836,57.10818 0,52.679548 V 72 c 8.409239,1.082101 17.291584,-3.34024 24,1.316406 z" />
      </g>
    </g>
    <rect
       id="rect46"
       y="-92"
       x="-12"
       width="8.000001"
       transform="matrix(0,0.25,-0.25,0,1,24)"
       ry="4"
       rx="3.6464469"
       height="96"
       style="fill:url(#d)" />
    <g
       id="g56"
       transform="matrix(-0.25,0,0,0.25,12.999998,1)">
      <rect
         style="fill:url(#j)"
         id="rect48"
         y="-40"
         x="28"
         width="48"
         transform="rotate(90)"
         rx="4.1442308"
         height="32.000008" />
      <g
         id="g54"
         style="fill-rule:evenodd">
        <rect
           style="fill:url(#i)"
           id="rect50"
           y="-36"
           x="-72"
           width="40"
           transform="matrix(0,-1,-1,0,0,0)"
           ry="1.4444439"
           rx="1.5"
           height="24" />
        <path
           sodipodi:nodetypes="ccccc"
           inkscape:connector-curvature="0"
           style="fill:url(#h)"
           id="path52"
           d="m 23.999992,60 c 7.583426,-6.692254 7.571368,-19.2164 12,-28 H 16.67954 c -1.082101,8.409239 2.660692,21.291584 -1.995954,28 z" />
      </g>
    </g>
    <path
       sodipodi:nodetypes="ccccccccccc"
       id="path3356"
       d="M 13.051222,9.97301 8.067572,3.986662 9.059104,2.996106 12.056372,4.94203 12,0 13.99463,9.96e-4 14.051002,4.943028 17,3 18.04074,3.991554 13.05122,9.973008 Z"
       style="fill:url(#linearGradient3358);fill-opacity:1;fill-rule:evenodd;stroke:none;stroke-width:0.34375"
       inkscape:connector-curvature="0" />
  </g>
</svg>
